!!!!SEGMENT: pl-kk--kk-i-382--056_hlonowski-j--boze-dlatego-dales-nam-zycie.krn
!!!cenid: 18xx:1558
!!!COM: Hlonowski, J.
!!!COM-rismID: pe50046000
!!!CDT:
!!!CNT:
!!!OTL: Boże dlatego dałeś nam życie
!!!PDT:
!!!AGN: Sacred
!!!SMS-siglum: PL-Kk
!!!SMS-shelfmark: Kk.I.382
!!!SMS-shelfwork: 042 W
!!!SMS-variant:
!!!SMS-altvar:
!!!NIFC-rismSourceID: 1001139027
!!!NIFC-rismChildID: 1001140801
!!!NIFC-islandoraID: pl-kk:6162
!!!URL-pdf-islandora: https://repozytorium.nifc.pl/islandora/object/pl-kk%3A6162/datastream/PDF/view
!!!URL-scan: https://polish.musicsources.pl/pl/lokalizacje/galeria/rekopisy/5994 @EN{Scan on Polish Music Sources Website} @PL{Skany w portalu Dziedzictwo Muzyki Polskiej w otwartym dostępie}
!!!ONB-nifc: UWAGA: obsada: S/T1, A/B1, B2. Skan 0040, 0184, 0261
!!!AIN: 1 alto 1 bass 1 tenor
!!!key:
**kern	**text	**kern	**text	**kern	**text
*part3	*part3	*part2	*part2	*part1	*part1
*staff3	*staff3	*staff2	*staff2	*staff1	*staff1
*Ibass	*	*Ialto	*	*Itenor	*
*I"Basso II	*	*I"Alto vel Bas I	*	*I"Soprano vel. Tenor I	*
*I'B.II	*	*I'A./B.I	*	*I'S./T.I	*
*clefF4	*	*clefF4	*	*clefG2	*
*k[b-e-a-d-]	*	*k[b-e-a-d-]	*	*k[b-e-a-d-]	*
*D-:	*	*D-:	*	*D-:	*
*M4/4	*	*M4/4	*	*M4/4	*
*met(c)	*	*met(c)	*	*met(c)	*
*A,B,B	*	*	*	*	*
=1	=1	=1	=1	=1	=1
*A	*A	*A	*A	*A	*A
(4A-\	Bo-	2A-\	Bo-	2ee-\	Bo-
4G-X\)	.	.	.	.	.
4F\	-że	4A-\	-że	4dd-\	-że
4E-\	dla-	4A-\	dla-	4cc\	dla-
=2	=2	=2	=2	=2	=2
2D-\	-te-	2A-\	-te-	2ff\	-te-
2A-\	-go	2A-\	-go	2ee-\	-go
=3	=3	=3	=3	=3	=3
2G\	da-	2A-X\	da-	2ee-\	da-
4F\	-łeś	4A-\	-łeś	4dd-\	-łeś
4A-\	nam	4A-\	nam	4cc\	nam
=4	=4	=4	=4	=4	=4
2E-\	ży-	2E-\	ży-	2cc\	ży-
2E-\	-cie,	2E-\	-cie,	2b-\	-cie,
=5	=5	=5	=5	=5	=5
2Dn\	By-	2F\	By-	2b-\	By-
4C/	-śmy	4F\	-śmy	4cc\	-śmy
4BB-/	Cię	4F\	Cię	4ddn\	Cię
!LO:LB:g=original	!	!LO:LB:g=original	!	!	!
=6	=6	=6	=6	=6	=6
2E-\	czci-	2G\	czci-	2ee-\	czci-
4BB-/	-li,	4B-\	-li	4ff\	-li
4BB-/	ko-	4B-\	ko-	4ff\	ko-
!	!	!	!	!LO:LB:g=original	!
=7	=7	=7	=7	=7	=7
(<2E-\	-cha-	(2.B-\	-cha-	(2gg\	-cha-
2BB-/)	.	.	.	2ff\)	.
.	.	4A-\)	.	.	.
=8	=8	=8	=8	=8	=8
1E-\;	-li;	1G\;	-li;	1ee-\;	-li;
=9!|:	=9!|:	=9!|:	=9!|:	=9!|:	=9!|:
*B	*B	*B	*B	*B	*B
(4A-\	Pró-	2A-\	Pró-	2ee-\	Pró-
4G-X\)	.	.	.	.	.
4F\	-żno	4An\	-żno	4ff\	-żno
4AAn/	zwo-	4F\	zwo-	4ee-\	zwo-
=10	=10	=10	=10	=10	=10
2BB-/	-dzi-	2F\	-dzi-	(4ee-\	-dzi-
.	.	.	.	4dd-\)	.
2BB-/	-ciel	2F\	-ciel	2dd-\	-ciel
!LO:LB:g=original	!	!	!	!	!
=11	=11	=11	=11	=11	=11
(4G\	cie-	(4G\	cie-	2dd-\	cie-
4F\)	.	4F\)	.	.	.
4E-\	-szy	4E-\	-szy	4ee-\	-szy
4GG/	się	4E-\	się	4dd-\	się
!	!	!LO:LB:g=original	!	!	!
=12	=12	=12	=12	=12	=12
2AA-/	skry-	2E-\	skry-	(4dd-\	skry-
.	.	.	.	4cc\)	.
2AA-/	-cie,	2E-\	-cie,	2cc\	-cie,
!	!	!	!	!LO:LB:g=original	!
=13	=13	=13	=13	=13	=13
2F\	Że	2F\	Że	2cc\	że
4BB-/	Twe	4F\	Twe	4dd-\	Twe
4AA-/	oł-	4A-\	oł-	4ee-\	oł-
=14	=14	=14	=14	=14	=14
2D-\	-ta-	2A-\	-ta-	2ff\	-ta-
4D-\	-rze	4F\	-rze	4ee-\	-rze
4D-\	o-	4F\	o-	4dd-\	o-
=15	=15	=15	=15	=15	=15
1E-\	-ba-	(2E-\	-ba-	(2cc\	-ba-
.	.	2D-\)	.	2b-\)	.
=16	=16	=16	=16	=16	=16
1AA-/;	-li	1C/;	-li.	1a-/;	-li
=:|!	=:|!	=:|!	=:|!	=:|!	=:|!
*-	*-	*-	*-	*-	*-
!!!system-decoration: [(s1,s2,s3)]
!!!RDF**kern: > = above
!!!RDF**kern: < = below
!!!EED: Leszek Kubiak
!!!EEV: 2021-02-11
!!!ENC: Andrzej Gręziak
!!!END: 2021-01-31
!!!YEC: Copyright 2022 Narodowy Instytut Fryderyka Chopina (https://polishscores.org)
!!!YEM: License CC-BY-4.0 (https://creativecommons.org/licenses/by/4.0)
